fs/battery_warning_24_filled.svg

<svg viewBox="0 0 24 24" fill="none" xmlns="http://www.w3.org/2000/svg" height="1em" width="1em">
  <path d="M8.24399 11.2001C8.47542 11.3327 8.66731 11.5245 8.79989 11.756L12.8092 18.7544C13.221 19.4732 12.9721 20.3897 12.2533 20.8015C12.0263 20.9316 11.7693 21 11.5077 21H3.48901C2.66059 21 1.98901 20.3284 1.98901 19.5C1.98901 19.2384 2.05743 18.9813 2.18747 18.7544L6.1968 11.756C6.60861 11.0371 7.52517 10.7883 8.24399 11.2001ZM7.50003 18C7.22388 18 7.00003 18.2239 7.00003 18.5C7.00003 18.7761 7.22388 19 7.50003 19C7.77617 19 8.00003 18.7761 8.00003 18.5C8.00003 18.2239 7.77617 18 7.50003 18ZM17 6C18.6569 6 20 7.34315 20 9V10H21.0004C21.1825 10 21.3533 10.0487 21.5004 10.1338C21.7993 10.3067 22.0004 10.6299 22.0004 11V13C22.0004 13.3701 21.7993 13.6933 21.5004 13.8662C21.3533 13.9513 21.1825 14 21.0004 14H20V15C20 16.6569 18.6569 18 17 18H13.529L9.66758 11.2589C9.44661 10.8732 9.1268 10.5534 8.74109 10.3324C7.54305 9.64603 6.01546 10.0608 5.32911 11.2589L2.36435 16.4347C2.13184 16.0085 1.9997 15.5197 1.9997 15V9C1.9997 7.34315 3.34285 6 4.9997 6H17ZM7.49835 13C7.2222 13 6.99835 13.2239 6.99835 13.5V16.5L7.0064 16.5899C7.04874 16.8231 7.25289 17 7.49835 17C7.77449 17 7.99835 16.7761 7.99835 16.5V13.5L7.99029 13.4101C7.94796 13.1769 7.74381 13 7.49835 13Z" fill="#212121"/>
</svg>

<svg viewBox="0 0 24 24" fill="none" xmlns="http://www.w3.org/2000/svg" height="1em" width="1em">
  <path d="M8.244 11.2a1.5 1.5 0 0 1 .556.556l4.01 6.998A1.5 1.5 0 0 1 11.507 21H3.489a1.5 1.5 0 0 1-1.302-2.246l4.01-6.998a1.5 1.5 0 0 1 2.047-.556ZM7.5 18a.5.5 0 1 0 0 1 .5.5 0 0 0 0-1ZM17 6a3 3 0 0 1 3 3v1h1a1 1 0 0 1 1 1v2a1 1 0 0 1-1 1h-1v1a3 3 0 0 1-3 3h-3.471l-3.861-6.741a2.5 2.5 0 0 0-4.339 0l-2.965 5.176A2.987 2.987 0 0 1 2 15V9a3 3 0 0 1 3-3h12Zm-9.502 7a.5.5 0 0 0-.5.5v3l.008.09a.5.5 0 0 0 .992-.09v-3l-.008-.09a.5.5 0 0 0-.492-.41Z" fill="#212121"/>
</svg>
